X:2001
T:Boar's Head Carol
R:Air
C:Trad. 1521
O:England
Z:Paul Hardy's Xmas Tunebook 2019 (see www.paulhardy.net). Creative Commons cc by-nc-sa licenced.
M:4/4
L:1/4
Q:1/4=140
K:C
G|"C" c2 c>c|"G" B "C"c "G"G>E|"F" F F A>F|"G" G>G "C" c G/G/|
"C" c c/c/ c c|"G" B "C"c "G"G>E|"F" F F A>F|"G" G>G "C" c2||
"C" e>e "G" d d|"C" c c "G" G2|"F" F F A>F|"G" G>G "C" c2|
"C" e>e "G" d d|"C" c c "G" G2|"F" F F A>F|"G" G/A/B "C" c2|]
W:The boar's head in hand bear I
W:Bedecked with bays and rosemary;
W:And I pray you, my masters, be merry,
W:Quot estis in convivio:
W:
W:Caput apri defero, Reddens laudes Domino.
W:Caput apri defero, Reddens laudes Domino.

